public/images/beraciaga/circle.svg

<svg width="86" height="86" viewBox="0 0 86 86" fill="none" xmlns="http://www.w3.org/2000/svg">
  <g filter="url(#filter0_b_26316_292165)">
    <circle cx="43" cy="43" r="41" fill="#C7FF6E" />
    <circle cx="43" cy="43" r="42" stroke="#709D27" stroke-width="2" />
  </g>
  <mask id="mask0_26316_292165" style="mask-type:alpha" maskUnits="userSpaceOnUse" x="2" y="2"
    width="82" height="82">
    <circle cx="43" cy="43" r="40" fill="#C7FF6E" stroke="#709D27" stroke-width="2" />
  </mask>
  <g mask="url(#mask0_26316_292165)">
    <path
      d="M3.0942 48.2904H-1.19912C-1.75965 48.2904 -2.14632 47.7516 -1.94685 47.2489L2.31927 36.4948C2.37698 36.3493 2.47936 36.2241 2.61285 36.1357C2.74633 36.0473 2.90461 36 3.06673 36H10.2656C10.8336 36 11.2208 36.5527 11.0064 37.0579L8.52245 42.9134H13.1987C13.8864 42.9134 14.2534 43.6919 13.7998 44.1883L2.33474 56.7345C1.7774 57.3446 0.744074 56.816 0.96034 56.0315L3.0942 48.2904Z"
      fill="#9CD1FF" fill-opacity="0.3" />
    <path
      d="M2.43773 48.7904H-1.19912C-2.08162 48.7904 -2.75258 47.9239 -2.41162 47.0645L2.43773 48.7904ZM2.43773 48.7904L0.478324 55.8987C0.478322 55.8987 0.47832 55.8987 0.478318 55.8987C0.296275 56.559 0.65643 57.109 1.12974 57.3511C1.6004 57.5918 2.25108 57.5674 2.70384 57.0718C2.70385 57.0718 2.70386 57.0718 2.70387 57.0718L14.1688 44.5256L2.43773 48.7904ZM1.8545 36.3104L-2.4116 47.0645L14.1689 44.5255C14.9438 43.6776 14.279 42.4134 13.1987 42.4134H9.27769L11.4667 37.2532C11.4667 37.2532 11.4667 37.2532 11.4667 37.2532C11.8333 36.3893 11.1599 35.5 10.2656 35.5H3.06673H3.06666C2.80774 35.5 2.55327 35.5755 2.33686 35.7188C2.12023 35.8622 1.9508 36.0677 1.8545 36.3104C1.8545 36.3104 1.8545 36.3104 1.8545 36.3104Z"
      stroke="#4B371F" stroke-opacity="0.3" />
    <path
      d="M22.0942 14.2904H17.8009C17.2403 14.2904 16.8537 13.7516 17.0531 13.2489L21.3193 2.49478C21.377 2.34929 21.4794 2.22407 21.6128 2.13571C21.7463 2.04735 21.9046 2.00002 22.0667 2H29.2656C29.8336 2 30.2208 2.55266 30.0064 3.05794L27.5225 8.91339H32.1987C32.8864 8.91339 33.2534 9.69193 32.7998 10.1883L21.3347 22.7345C20.7774 23.3446 19.7441 22.816 19.9603 22.0315L22.0942 14.2904Z"
      fill="#9CD1FF" fill-opacity="0.3" />
    <path
      d="M21.4377 14.7904H17.8009C16.9184 14.7904 16.2474 13.9239 16.5884 13.0645L21.4377 14.7904ZM21.4377 14.7904L19.4783 21.8987C19.4783 21.8987 19.4783 21.8987 19.4783 21.8987C19.2963 22.559 19.6564 23.109 20.1297 23.3511C20.6004 23.5918 21.2511 23.5674 21.7038 23.0718C21.7038 23.0718 21.7039 23.0718 21.7039 23.0718L33.1688 10.5256L21.4377 14.7904ZM20.8545 2.31042L16.5884 13.0645L33.1689 10.5255C33.9438 9.6776 33.279 8.41339 32.1987 8.41339H28.2777L30.4667 3.25325C30.4667 3.25324 30.4667 3.25322 30.4667 3.25321C30.8333 2.38933 30.1599 1.5 29.2656 1.5H22.0667H22.0667C21.8077 1.50004 21.5533 1.57552 21.3369 1.71878C21.1202 1.86218 20.9508 2.06765 20.8545 2.31041C20.8545 2.31041 20.8545 2.31042 20.8545 2.31042Z"
      stroke="#4B371F" stroke-opacity="0.3" />
    <path
      d="M22.0942 80.2904H17.8009C17.2403 80.2904 16.8537 79.7516 17.0531 79.2489L21.3193 68.4948C21.377 68.3493 21.4794 68.2241 21.6128 68.1357C21.7463 68.0473 21.9046 68 22.0667 68H29.2656C29.8336 68 30.2208 68.5527 30.0064 69.0579L27.5225 74.9134H32.1987C32.8864 74.9134 33.2534 75.6919 32.7998 76.1883L21.3347 88.7345C20.7774 89.3446 19.7441 88.816 19.9603 88.0315L22.0942 80.2904Z"
      fill="#9CD1FF" fill-opacity="0.3" />
    <path
      d="M21.4377 80.7904H17.8009C16.9184 80.7904 16.2474 79.9239 16.5884 79.0645L21.4377 80.7904ZM21.4377 80.7904L19.4783 87.8987C19.4783 87.8987 19.4783 87.8987 19.4783 87.8987C19.2963 88.559 19.6564 89.109 20.1297 89.3511C20.6004 89.5918 21.2511 89.5674 21.7038 89.0718C21.7038 89.0718 21.7039 89.0718 21.7039 89.0718L33.1688 76.5256L21.4377 80.7904ZM20.8545 68.3104L16.5884 79.0645L33.1689 76.5255C33.9438 75.6776 33.279 74.4134 32.1987 74.4134H28.2777L30.4667 69.2532C30.4667 69.2532 30.4667 69.2532 30.4667 69.2532C30.8333 68.3893 30.1599 67.5 29.2656 67.5H22.0667H22.0667C21.8077 67.5 21.5533 67.5755 21.3369 67.7188C21.1202 67.8622 20.9508 68.0677 20.8545 68.3104C20.8545 68.3104 20.8545 68.3104 20.8545 68.3104Z"
      stroke="#4B371F" stroke-opacity="0.3" />
    <path
      d="M37.9149 49.6546H30.4015C29.4206 49.6546 28.7439 48.7052 29.093 47.8195L36.5587 28.8718C36.6597 28.6154 36.8389 28.3948 37.0725 28.2391C37.3061 28.0834 37.5831 28 37.8668 28H50.4649C51.4589 28 52.1365 28.9737 51.7613 29.864L47.4143 40.1807H55.5977C56.8013 40.1807 57.4434 41.5524 56.6496 42.4269L36.5858 64.5323C35.6105 65.6071 33.8021 64.6758 34.1806 63.2937L37.9149 49.6546Z"
      fill="#9CD1FF" fill-opacity="0.3" />
    <path
      d="M48.1675 39.6807L52.222 30.0582C52.7463 28.8143 51.7901 27.5 50.4649 27.5H37.8668H37.8667C37.4855 27.5001 37.1118 27.612 36.7952 27.823C36.4784 28.0342 36.2327 28.3353 36.0935 28.6885C36.0935 28.6885 36.0935 28.6885 36.0935 28.6885L28.6278 47.6361L48.1675 39.6807ZM48.1675 39.6807H55.5977C57.2003 39.6807 58.1284 41.5417 57.0198 42.763C57.0198 42.763 57.0198 42.763 57.0198 42.763M48.1675 39.6807L57.0198 42.763M57.0198 42.763L36.9561 64.8683M57.0198 42.763L36.9561 64.8683M36.9561 64.8683C36.956 64.8683 36.956 64.8683 36.956 64.8683C36.2944 65.5974 35.3442 65.6381 34.6466 65.2788C33.9467 64.9184 33.4364 64.1183 33.6983 63.1616L37.2596 50.1546H30.4015C29.0938 50.1546 28.1401 48.8737 28.6278 47.6362L36.9561 64.8683Z"
      stroke="#4B371F" stroke-opacity="0.3" />
    <path
      d="M59.0942 14.2904H54.8009C54.2403 14.2904 53.8537 13.7516 54.0531 13.2489L58.3193 2.49478C58.377 2.34929 58.4794 2.22407 58.6128 2.13571C58.7463 2.04735 58.9046 2.00002 59.0667 2H66.2656C66.8336 2 67.2208 2.55266 67.0064 3.05794L64.5225 8.91339H69.1987C69.8864 8.91339 70.2534 9.69193 69.7998 10.1883L58.3347 22.7345C57.7774 23.3446 56.7441 22.816 56.9603 22.0315L59.0942 14.2904Z"
      fill="#9CD1FF" fill-opacity="0.3" />
    <path
      d="M58.4377 14.7904H54.8009C53.9184 14.7904 53.2474 13.9239 53.5884 13.0645L58.4377 14.7904ZM58.4377 14.7904L56.4783 21.8987C56.4783 21.8987 56.4783 21.8987 56.4783 21.8987C56.2963 22.559 56.6564 23.109 57.1297 23.3511C57.6004 23.5918 58.2511 23.5674 58.7038 23.0718C58.7038 23.0718 58.7039 23.0718 58.7039 23.0718L70.1688 10.5256L58.4377 14.7904ZM57.8545 2.31042L53.5884 13.0645L70.1689 10.5255C70.9438 9.6776 70.279 8.41339 69.1987 8.41339H65.2777L67.4667 3.25325C67.4667 3.25324 67.4667 3.25322 67.4667 3.25321C67.8333 2.38933 67.1599 1.5 66.2656 1.5H59.0667H59.0667C58.8077 1.50004 58.5533 1.57552 58.3369 1.71878C58.1202 1.86218 57.9508 2.06765 57.8545 2.31041C57.8545 2.31041 57.8545 2.31042 57.8545 2.31042Z"
      stroke="#4B371F" stroke-opacity="0.3" />
    <path
      d="M59.0942 80.2904H54.8009C54.2403 80.2904 53.8537 79.7516 54.0531 79.2489L58.3193 68.4948C58.377 68.3493 58.4794 68.2241 58.6128 68.1357C58.7463 68.0473 58.9046 68 59.0667 68H66.2656C66.8336 68 67.2208 68.5527 67.0064 69.0579L64.5225 74.9134H69.1987C69.8864 74.9134 70.2534 75.6919 69.7998 76.1883L58.3347 88.7345C57.7774 89.3446 56.7441 88.816 56.9603 88.0315L59.0942 80.2904Z"
      fill="#9CD1FF" fill-opacity="0.3" />
    <path
      d="M58.4377 80.7904H54.8009C53.9184 80.7904 53.2474 79.9239 53.5884 79.0645L58.4377 80.7904ZM58.4377 80.7904L56.4783 87.8987C56.4783 87.8987 56.4783 87.8987 56.4783 87.8987C56.2963 88.559 56.6564 89.109 57.1297 89.3511C57.6004 89.5918 58.2511 89.5674 58.7038 89.0718C58.7038 89.0718 58.7039 89.0718 58.7039 89.0718L70.1688 76.5256L58.4377 80.7904ZM57.8545 68.3104L53.5884 79.0645L70.1689 76.5255C70.9438 75.6776 70.279 74.4134 69.1987 74.4134H65.2777L67.4667 69.2532C67.4667 69.2532 67.4667 69.2532 67.4667 69.2532C67.8333 68.3893 67.1599 67.5 66.2656 67.5H59.0667H59.0667C58.8077 67.5 58.5533 67.5755 58.3369 67.7188C58.1202 67.8622 57.9508 68.0677 57.8545 68.3104C57.8545 68.3104 57.8545 68.3104 57.8545 68.3104Z"
      stroke="#4B371F" stroke-opacity="0.3" />
    <path
      d="M77.0942 48.2904H72.8009C72.2403 48.2904 71.8537 47.7516 72.0531 47.2489L76.3193 36.4948C76.377 36.3493 76.4794 36.2241 76.6128 36.1357C76.7463 36.0473 76.9046 36 77.0667 36H84.2656C84.8336 36 85.2208 36.5527 85.0064 37.0579L82.5225 42.9134H87.1987C87.8864 42.9134 88.2534 43.6919 87.7998 44.1883L76.3347 56.7345C75.7774 57.3446 74.7441 56.816 74.9603 56.0315L77.0942 48.2904Z"
      fill="#9CD1FF" fill-opacity="0.3" />
    <path
      d="M76.4377 48.7904H72.8009C71.9184 48.7904 71.2474 47.9239 71.5884 47.0645L76.4377 48.7904ZM76.4377 48.7904L74.4783 55.8987C74.4783 55.8987 74.4783 55.8987 74.4783 55.8987C74.2963 56.559 74.6564 57.109 75.1297 57.3511C75.6004 57.5918 76.2511 57.5674 76.7038 57.0718C76.7038 57.0718 76.7039 57.0718 76.7039 57.0718L88.1688 44.5256L76.4377 48.7904ZM75.8545 36.3104L71.5884 47.0645L88.1689 44.5255C88.9438 43.6776 88.279 42.4134 87.1987 42.4134H83.2777L85.4667 37.2532C85.4667 37.2532 85.4667 37.2532 85.4667 37.2532C85.8333 36.3893 85.1599 35.5 84.2656 35.5H77.0667H77.0667C76.8077 35.5 76.5533 35.5755 76.3369 35.7188C76.1202 35.8622 75.9508 36.0677 75.8545 36.3104C75.8545 36.3104 75.8545 36.3104 75.8545 36.3104Z"
      stroke="#4B371F" stroke-opacity="0.3" />
  </g>
  <defs>
    <filter id="filter0_b_26316_292165" x="-10" y="-10" width="106" height="106"
      filterUnits="userSpaceOnUse" color-interpolation-filters="sRGB">
      <feFlood flood-opacity="0" result="BackgroundImageFix" />
      <feGaussianBlur in="BackgroundImageFix" stdDeviation="5" />
      <feComposite in2="SourceAlpha" operator="in" result="effect1_backgroundBlur_26316_292165" />
      <feBlend mode="normal" in="SourceGraphic" in2="effect1_backgroundBlur_26316_292165"
        result="shape" />
    </filter>
  </defs>
</svg>

<svg width="86" height="86" viewBox="0 0 86 86" fill="none" xmlns="http://www.w3.org/2000/svg"><g filter="url(#a)"><circle cx="43" cy="43" r="41" fill="#C7FF6E"/><circle cx="43" cy="43" r="42" stroke="#709D27" stroke-width="2"/></g><mask id="b" style="mask-type:alpha" maskUnits="userSpaceOnUse" x="2" y="2" width="82" height="82"><circle cx="43" cy="43" r="40" fill="#C7FF6E" stroke="#709D27" stroke-width="2"/></mask><g mask="url(#b)"><path d="M3.094 48.29h-4.293c-.56 0-.947-.538-.748-1.041L2.32 36.495a.774.774 0 0 1 .294-.36.823.823 0 0 1 .454-.135h7.199c.568 0 .955.553.74 1.058l-2.484 5.855H13.2c.687 0 1.054.779.6 1.275L2.336 56.734c-.558.61-1.59.082-1.375-.703l2.134-7.74z" fill="#9CD1FF" fill-opacity=".3"/><path d="M2.438 48.79H-1.2c-.883 0-1.554-.866-1.213-1.725l4.85 1.725zm0 0L.478 55.9c-.182.66.178 1.21.652 1.452.47.24 1.121.216 1.574-.28l11.465-12.545L2.438 48.79zm-.584-12.48-4.266 10.755 16.58-2.54c.776-.847.111-2.112-.97-2.112h-3.92l2.189-5.16c.366-.864-.307-1.753-1.201-1.753h-7.2c-.258 0-.513.075-.73.219a1.274 1.274 0 0 0-.481.591z" stroke="#4B371F" stroke-opacity=".3"/><path d="M22.094 14.29h-4.293c-.56 0-.947-.538-.748-1.041L21.32 2.495a.774.774 0 0 1 .294-.36.823.823 0 0 1 .454-.135h7.199c.568 0 .955.553.74 1.058l-2.483 5.855H32.2c.687 0 1.054.779.6 1.275L21.336 22.734c-.558.61-1.59.082-1.375-.703l2.134-7.74z" fill="#9CD1FF" fill-opacity=".3"/><path d="M21.438 14.79H17.8c-.883 0-1.554-.866-1.213-1.725l4.85 1.725zm0 0-1.96 7.109c-.182.66.178 1.21.652 1.452.47.24 1.121.216 1.574-.28l11.465-12.545-11.731 4.264zm-.583-12.48-4.267 10.755 16.58-2.54c.776-.847.111-2.112-.97-2.112h-3.92l2.189-5.16c.366-.864-.307-1.753-1.201-1.753h-7.2a1.33 1.33 0 0 0-.73.219 1.274 1.274 0 0 0-.481.591z" stroke="#4B371F" stroke-opacity=".3"/><path d="M22.094 80.29h-4.293c-.56 0-.947-.538-.748-1.041l4.266-10.754a.774.774 0 0 1 .294-.36.823.823 0 0 1 .454-.135h7.199c.568 0 .955.553.74 1.058l-2.483 5.855h4.676c.687 0 1.054.779.6 1.275L21.336 88.734c-.558.61-1.59.082-1.375-.703l2.134-7.74z" fill="#9CD1FF" fill-opacity=".3"/><path d="M21.438 80.79H17.8c-.883 0-1.554-.866-1.213-1.726l4.85 1.726zm0 0-1.96 7.109c-.182.66.178 1.21.652 1.452.47.24 1.121.216 1.574-.28l11.465-12.545-11.731 4.264zm-.583-12.48-4.267 10.754 16.58-2.538c.776-.848.111-2.113-.97-2.113h-3.92l2.189-5.16c.366-.864-.307-1.753-1.201-1.753h-7.2a1.33 1.33 0 0 0-.73.219 1.274 1.274 0 0 0-.481.591z" stroke="#4B371F" stroke-opacity=".3"/><path d="M37.915 49.655H30.4c-.98 0-1.657-.95-1.308-1.836l7.466-18.947c.1-.257.28-.477.514-.633.233-.156.51-.239.794-.239h12.598c.994 0 1.671.974 1.296 1.864l-4.347 10.317h8.184c1.203 0 1.845 1.371 1.052 2.246L36.586 64.532c-.975 1.075-2.784.144-2.405-1.238l3.734-13.64z" fill="#9CD1FF" fill-opacity=".3"/><path d="m48.167 39.68 4.055-9.622c.524-1.244-.432-2.558-1.757-2.558H37.867c-.381 0-.755.112-1.072.323a1.863 1.863 0 0 0-.702.866l-7.465 18.947 19.54-7.955zm0 0h7.43c1.603 0 2.531 1.862 1.423 3.083m-8.853-3.082 8.853 3.082m0 0L36.956 64.868M57.02 42.763 36.956 64.868m0 0c-.662.73-1.612.77-2.31.41-.7-.36-1.21-1.16-.948-2.116l3.562-13.007h-6.858c-1.308 0-2.262-1.281-1.774-2.519l8.328 17.232z" stroke="#4B371F" stroke-opacity=".3"/><path d="M59.094 14.29h-4.293c-.56 0-.947-.538-.748-1.041L58.32 2.495a.774.774 0 0 1 .294-.36.823.823 0 0 1 .454-.135h7.199c.568 0 .955.553.74 1.058l-2.484 5.855H69.2c.687 0 1.054.779.6 1.275L58.336 22.734c-.558.61-1.59.082-1.375-.703l2.134-7.74z" fill="#9CD1FF" fill-opacity=".3"/><path d="M58.438 14.79H54.8c-.883 0-1.554-.866-1.213-1.725l4.85 1.725zm0 0-1.96 7.109c-.182.66.178 1.21.652 1.452.47.24 1.121.216 1.574-.28l11.465-12.545-11.731 4.264zm-.584-12.48-4.266 10.755 16.58-2.54c.776-.847.111-2.112-.97-2.112h-3.92l2.189-5.16c.366-.864-.307-1.753-1.201-1.753h-7.2a1.33 1.33 0 0 0-.73.219 1.274 1.274 0 0 0-.481.591z" stroke="#4B371F" stroke-opacity=".3"/><path d="M59.094 80.29h-4.293c-.56 0-.947-.538-.748-1.041l4.266-10.754a.774.774 0 0 1 .294-.36.823.823 0 0 1 .454-.135h7.199c.568 0 .955.553.74 1.058l-2.484 5.855H69.2c.687 0 1.054.779.6 1.275L58.336 88.734c-.558.61-1.59.082-1.375-.703l2.134-7.74z" fill="#9CD1FF" fill-opacity=".3"/><path d="M58.438 80.79H54.8c-.883 0-1.554-.866-1.213-1.726l4.85 1.726zm0 0-1.96 7.109c-.182.66.178 1.21.652 1.452.47.24 1.121.216 1.574-.28l11.465-12.545-11.731 4.264zm-.584-12.48-4.266 10.754 16.58-2.538c.776-.848.111-2.113-.97-2.113h-3.92l2.189-5.16c.366-.864-.307-1.753-1.201-1.753h-7.2a1.33 1.33 0 0 0-.73.219 1.274 1.274 0 0 0-.481.591z" stroke="#4B371F" stroke-opacity=".3"/><path d="M77.094 48.29h-4.293c-.56 0-.947-.538-.748-1.041l4.266-10.754a.774.774 0 0 1 .294-.36.823.823 0 0 1 .454-.135h7.199c.568 0 .955.553.74 1.058l-2.484 5.855H87.2c.687 0 1.054.779.6 1.275L76.336 56.734c-.558.61-1.59.082-1.375-.703l2.134-7.74z" fill="#9CD1FF" fill-opacity=".3"/><path d="M76.438 48.79H72.8c-.883 0-1.554-.866-1.213-1.725l4.85 1.725zm0 0-1.96 7.109c-.182.66.178 1.21.652 1.452.47.24 1.121.216 1.574-.28l11.465-12.545-11.731 4.264zm-.584-12.48-4.266 10.755 16.58-2.54c.776-.847.111-2.112-.97-2.112h-3.92l2.189-5.16c.366-.864-.307-1.753-1.201-1.753h-7.2c-.258 0-.513.075-.73.219a1.274 1.274 0 0 0-.481.591z" stroke="#4B371F" stroke-opacity=".3"/></g><defs><filter id="a" x="-10" y="-10" width="106" height="106" filterUnits="userSpaceOnUse" color-interpolation-filters="sRGB"><feFlood flood-opacity="0" result="BackgroundImageFix"/><feGaussianBlur in="BackgroundImageFix" stdDeviation="5"/><feComposite in2="SourceAlpha" operator="in" result="effect1_backgroundBlur_26316_292165"/><feBlend in="SourceGraphic" in2="effect1_backgroundBlur_26316_292165" result="shape"/></filter></defs></svg>
